X: 2
T: G-String George
M: 3/4
K: G
L: 1/8
Q: 1/4=120
| (bc')(bc')(bc') | (bc'd'c'bg) | (fg)(fg)(fg) | (fgagfd) |
 (cd)(cd)(cd) | (cdedcA) | (FdcBAG) | (FGABcd) |
 (Bc)(Bc)(Bc) | (BcdcBg) | (fg)(fg)(fg) | (fgagfa) |
 (c'd')(c'd')(c'd') | (c'd'e'd'c'a) | (bagabc') | b2 G2 z2 |

% From _First Duos for Cello_,  Steven De'ak (sic)
